!!!!SEGMENT: pl-wn--mus-iii-72-534--001-002_zarebski-juliusz--etrennes-op-27-valse.krn
!!!cenid: 18xx:3550
!!!COM: Zarębski, Juliusz
!!!COM-rismid: pe30020631
!!!CDT:
!!!CNT:
!!!OTL: Etrennes op. 27
!!!OMV: 002
!!!PDT:
!!!AGN:
!!!SMS-siglum: PL-Wn
!!!SMS-shelfmark: Mus.III.72.534
!!!SMS-shelfwork: 001-002 W
!!!SMS-variant:
!!!SMS-altvar:
!!!NIFC-rismid:
!!!URL-scan: https://polona.pl/item/etrennes-six-morceaux-d-execution-facile-pour-piano-oeuvre-27,MTA4MzU2NzI5/18/#info:metadata
!!!ONB-nifc:
!!!key: B
!!!OMD: Tempo giusto. ([half-dot]=76.)
**kern	**fing	**kern	**dynam	**fing
*part2	*	*part1	*part1	*
*staff2	*	*staff1	*	*
*I"[Piano]	*	*I"[Piano]	*	*
*I'	*	*I'	*	*
*Ipiano	*	*Ipiano	*	*
*ICklav	*	*ICklav	*	*
*clefF4	*	*clefG2	*	*
*Xcancel	*	*	*Xcancel	*
*k[f#c#g#d#a#]	*	*k[f#c#g#d#a#]	*	*
*B:	*	*B:	*	*
*M3/4	*	*M3/4	*	*
*MM228	*	*MM228	*	*
=1	=1	=1	=1	=1
2.r	.	4r	.	.
.	.	4r	.	.
.	.	4f#'/	p	.
=2	=2	=2	=2	=2
2.r	.	4f#'/	.	.
.	.	4r	.	.
.	.	4ff#'\	.	.
=3	=3	=3	=3	=3
2.r	.	4ff#'\	.	.
.	.	4r	.	.
.	.	4f#'/	.	.
=4	=4	=4	=4	=4
2.r	.	4f#'/	.	.
.	.	4r	.	.
.	.	4ff#'\	.	.
=5	=5	=5	=5	=5
2.r	.	4ff#'\	.	.
.	.	4r	.	.
.	.	4f#'/	.	.
=6	=6	=6	=6	=6
2.r	.	4ff#'\	.	.
.	.	4r	.	.
.	.	4f#'/	.	.
=7	=7	=7	=7	=7
2.r	.	4ff#'\	.	.
.	.	4r	.	.
.	.	4r	.	.
!!linebreak:original
=8	=8	=8	=8	=8
2.r	.	4r	.	.
.	.	4r	.	.
.	.	4f#'/	.	.
=9	=9	=9	=9	=9
4r	.	4ff#'\	.	.
4d# 4B'\	.	4r	.	.
4d# 4B'\	.	4f#'/	.	.
=10	=10	=10	=10	=10
4r	.	(2f#/	.	.
4e 4A#'\	.	.	.	.
4e 4A#'\	.	[4dd#\	.	.
=11	=11	=11	=11	=11
(4F#\	.	4dd#\]	.	.
4e 4A#'\)	.	4cc#'\)	.	.
4e 4A#'\	.	8r	.	.
.	.	(8dd#\	.	.
=12	=12	=12	=12	=12
4r	.	2cc#\	.	.
4d# 4B'\	.	.	.	.
4d# 4B'\	.	4b\)	.	.
=13	=13	=13	=13	=13
4r	.	4dd#'\	.	.
4B 4G#'\	.	4r	.	.
4B 4G#'\	.	4d#'/	.	.
=14	=14	=14	=14	=14
4r	.	(2d#/	.	.
4c# 4F##X'\	.	.	.	.
4c# 4F##'\	.	[4b\	.	.
!!linebreak:original
=15	=15	=15	=15	=15
(4D#\	.	4b\]	.	.
4c# 4F##X'\)	.	4a#'/)	.	.
4c# 4F##'\	.	8r	.	.
.	.	(8b\	.	.
=16	=16	=16	=16	=16
4r	.	2a#/	.	.
4B 4G#'\	.	.	.	.
4B 4G#'\	.	4g#/)	.	.
=17	=17	=17	=17	=17
(4E\	.	(8f##X\L	.	.
.	.	8g#\	.	.
4c# 4G#\)	.	8a#\	.	.
.	.	8b\	.	.
4c# 4G#\	.	8dd#\	.	.
.	.	8cc#\J	.	.
=18	=18	=18	=18	=18
(4D#\	.	4b'\)	.	.
4B 4F#\)	.	8r	.	.
.	.	8f#X/	.	.
4B 4F#\	.	4f#/	.	.
=19	=19	=19	=19	=19
(4E\	.	(8f##X\L	.	.
.	.	8g#\	.	.
4c# 4G#\)	.	8a#\	.	.
.	.	8b\	.	.
4c# 4G#\	.	8dd#\	.	.
.	.	8cc#\J)	.	.
!!linebreak:original
=20	=20	=20	=20	=20
(4D#\	.	(4b'\	<	.
4B 4F#\)	.	4ff#'\)	.	.
4B 4F#\	.	8r	.	.
.	.	8ff#\	.	.
=21	=21	=21	=21	=21
(4C#/	.	(4.ff#\	.	.
4B 4G#\)	.	.	.	.
.	.	8ee#X\L	.	.
4B 4G#\	.	8bb\	.	.
.	.	8aa#\J	[[	.
=22	=22	=22	=22	=22
2.B 2.G#\	.	8bb\L	>	.
.	.	8aa#\	.	.
.	.	8gg#\	.	.
.	.	8ff#\	.	.
.	.	8ee#X\	.	.
.	.	8dd#\J	.	.
=23	=23	=23	=23	=23
2.r	.	8cc#\L	.	.
.	.	8dd#\	.	.
.	.	8ee#X\	.	.
.	.	8dd#\	.	.
.	.	8cc#\	.	.
.	.	8b\J	.	.
=24	=24	=24	=24	=24
2.r	.	8a#\L	.	.
.	.	8b\	.	.
.	.	8cc#\	.	.
.	.	8b\	.	.
.	.	8a#\	.	.
.	.	8g#\J)	]]	.
!!pagebreak:original
=25	=25	=25	=25	=25
4r	.	(4.g#/	.	.
4e 4A# 4F#'\	.	.	.	.
.	.	8f#/)	.	.
4e 4A# 4F#'\	.	4f#'/	.	.
=26	=26	=26	=26	=26
4r	.	(4.dd#\	.	.
4B 4F# 4BB'\	.	.	.	.
.	.	8b/L	.	.
4B 4F# 4BB'\	.	8d#/	.	.
.	.	8a#/J)	.	.
=27	=27	=27	=27	=27
4r	.	(4.g#/	.	.
4A# 4F#'\	.	.	.	.
.	.	8f#/L	.	.
4A# 4F#'\	.	8c#/	.	.
.	.	8e/J)	.	.
=28	=28	=28	=28	=28
4r	.	4d#'/	.	.
4B 4F# 4BB'\	.	4r	.	.
4B 4F# 4BB'\	.	4d#'/	.	.
=29	=29	=29	=29	=29
4r	.	(4.g#/	.	.
4e 4A# 4F#'\	.	.	.	.
.	.	8f#/)	.	.
4e 4A# 4F#'\	.	4f#'/	.	.
=30	=30	=30	=30	=30
4r	.	(4.dd#\	.	.
4B 4F# 4BB'\	.	.	.	.
.	.	8b/L	.	.
4B 4F# 4BB'\	.	8d#/	.	.
.	.	8g#/J)	.	.
!!linebreak:original
=31	=31	=31	=31	=31
4r	.	(2f#/	.	.
4e 4A# 4F#'\	.	.	.	.
4e 4A# 4F#'\	.	8f#/L	.	.
.	.	8cc#/J	.	.
=32	=32	=32	=32	=32
4r	.	2.b\)	.	.
4d# 4B'\	.	.	.	.
4d# 4B'\	.	.	.	.
*clefG2	*	*	*	*
=33	=33	=33	=33	=33
4r	.	(4.gg#\	.	.
4ee 4a# 4f#'\	.	.	.	.
.	.	8ff#\)	.	.
4ee 4a# 4f#'\	.	4ff#'\	.	.
=34	=34	=34	=34	=34
4r	.	(4.ddd#\	.	.
4b 4f# 4B'/	.	.	.	.
.	.	8bb\L	.	.
4b 4f# 4B'/	.	8dd#\	.	.
.	.	8aa#\J)	.	.
=35	=35	=35	=35	=35
4r	.	(4.gg#\	.	.
4a# 4f#'/	.	.	.	.
.	.	8ff#\L	.	.
4a# 4f#'/	.	8cc#\	.	.
.	.	8ee\J)	.	.
=36	=36	=36	=36	=36
4r	.	4dd#'\	.	.
4f# 4B'/	.	4r	.	.
4b 4f#'/	.	4dd#'\	.	.
=37	=37	=37	=37	=37
4r	.	(4.gg#\	.	.
4ee 4a# 4f#'\	.	.	.	.
.	.	8ff#\)	.	.
4ee 4a# 4f#'\	.	4ff#'\	.	.
!!linebreak:original
=38	=38	=38	=38	=38
4r	.	(4.ddd#\	.	.
4b 4f# 4B'/	.	.	.	.
.	.	8bb\L	.	.
4b 4f# 4B'/	.	8dd#\	.	.
.	.	8gg#\J)	.	.
=39	=39	=39	=39	=39
4r	.	(2ff#\	.	.
4ee 4a# 4f#'\	.	.	.	.
4ee 4a# 4f#'\	.	4ccc# 4ff#\)	.	.
=40	=40	=40	=40	=40
4r	.	2.bb\	.	.
4dd# 4b'\	.	.	.	.
4dd# 4b'\	.	.	.	.
=41	=41	=41	=41	=41
4r	.	2.bb\	.	.
4ee 4ccnX 4b'\	.	.	.	.
4ee 4cc 4b'\	.	.	.	.
=42	=42	=42	=42	=42
4r	.	2.bb\	>	.
4ee#X 4cc#X 4b\	.	.	.	.
4ee# 4cc# 4b\	.	.	.	.
=43	=43	=43	=43	=43
!	!	!LO:TX:b:i:t=rit.	!	!
4r	.	2.bb\	.	.
4ff# 4dd# 4b\	.	.	.	.
4ff# 4dd# 4b\	.	.	.	.
=44	=44	=44	=44	=44
4r	.	2.bb\	]	.
4ff##X 4dd# 4b\	.	.	.	.
4r	.	.	.	.
!!linebreak:original
*clefF4	*	*	*	*
=45||	=45||	=45||	=45||	=45||
*k[f#c#g#d#]	*	*k[f#c#g#d#]	*	*
!	!	!LO:TX:a:i:t=a Tempo	!LO:DY:t=sempre %s	!
4BB 4EE'/	.	4bb 4gg#'\	p	.
2BB 2EE/	.	(4.bb 4.gg#\	.	.
.	.	8b\	.	.
=46	=46	=46	=46	=46
4A 4BB'\	.	4ee 4cc#'\)	.	.
2A 2BB\	.	(4.ee 4.cc#\	.	.
.	.	8a/	.	.
=47	=47	=47	=47	=47
4BB 4EE'/	.	4b 4g#'/)	.	.
2BB 2EE/	.	(4.b 4.g#/	.	.
.	.	8B/	.	.
=48	=48	=48	=48	=48
4A 4BB'\	.	[2.e [2.c#/)	.	.
2A 2BB\	.	.	.	.
=49	=49	=49	=49	=49
4BB 4EE'/	.	4e] 4c#/]	.	.
2BB 2EE/	.	(8c#/L	.	.
.	.	8e/	.	.
.	.	8f#/	.	.
.	.	8a/J	.	.
!!linebreak:original
=50	=50	=50	=50	=50
4A 4BB'\	.	8f#/L	.	.
.	.	8e/	.	.
2A 2BB\	.	8f#/	.	.
.	.	8a/	.	.
.	.	8cc#/	.	.
.	.	8ee/J	.	.
=51	=51	=51	=51	=51
4BB 4EE'/	.	8cc#\L	.	.
.	.	8a\	.	.
2BB 2EE/	.	8cc#\	.	.
.	.	8ee\	.	.
.	.	8ff#\	.	.
.	.	8aa\J	.	.
=52	=52	=52	=52	=52
4A 4BB'\	.	8ff#\L	.	.
.	.	8ee\	.	.
2A 2BB\	.	8ff#\	.	.
.	.	8aa\	.	.
.	.	8ccc#\J)	.	.
.	.	8r	.	.
=53	=53	=53	=53	=53
4BB 4EE'/	.	4bb 4gg#'\	.	.
2BB 2EE/	.	(4.bb 4.gg#\	.	.
.	.	8b\	.	.
=54	=54	=54	=54	=54
4A 4BB'\	.	4ee 4cc#'\)	.	.
2A 2BB\	.	(4.ee 4.cc#\	.	.
.	.	8a/	.	.
!!linebreak:original
=55	=55	=55	=55	=55
4BB 4EE'/	.	4b 4g#'/)	.	.
2BB 2EE/	.	(4.b 4.g#/	.	.
.	.	8B/	.	.
=56	=56	=56	=56	=56
4A 4BB'\	.	[2.e [2.c#/)	.	.
2A 2BB\	.	.	.	.
=57	=57	=57	=57	=57
4BB 4EE'/	.	4e] 4c#/]	.	.
2BB 2EE/	.	(8c#/L	.	.
.	.	8e/	.	.
.	.	8f#/	.	.
.	.	8a/J	.	.
=58	=58	=58	=58	=58
4A 4BB'\	.	8f#/L	.	.
.	.	8e/	.	.
2A 2BB\	.	8f#/	.	.
.	.	8a/	.	.
.	.	8cc#/	.	.
.	.	8ee/J	.	.
=59	=59	=59	=59	=59
4BB 4EE'/	.	8cc#\L	.	.
.	.	8a\	.	.
2BB 2EE/	.	8cc#\	.	.
.	.	8ee\	.	.
.	.	8ff#\	.	.
.	.	8aa\J	.	.
!!pagebreak:original
=60	=60	=60	=60	=60
4A 4BB'\	.	8ff#\L	.	.
.	.	8ee\	.	.
2A 2BB\	.	8ff#\	.	.
.	.	8aa\	.	.
.	.	8ccc#\J)	.	.
.	.	8r	.	.
=61	=61	=61	=61	=61
4D# 4GG#'/	.	4bb 4gg#'\	.	.
2D# 2GG#/	.	(4.bb 4.gg#\	.	.
.	.	8b\	.	.
=62	=62	=62	=62	=62
4G# 4C#'\	.	4ee 4cc#'\)	.	.
2G# 2C#\	.	(4.ee 4.cc#\	.	.
.	.	8e/	.	.
=63	=63	=63	=63	=63
4D# 4GG#'/	.	4b 4g#'/)	.	.
2D# 2GG#/	.	(4.b 4.g#/	.	.
.	.	8B/	.	.
=64	=64	=64	=64	=64
4G# 4C#'\	.	[2.e [2.c#/)	.	.
2G# 2C#\	.	.	.	.
!!linebreak:original
=65	=65	=65	=65	=65
4D# 4GG#'/	.	4e] 4c#/]	.	.
2D# 2GG#/	.	(8d#/L	.	.
.	.	8B/	.	.
.	.	8d#/	.	.
.	.	8g#/J	.	.
=66	=66	=66	=66	=66
4G# 4C#'\	.	8b/L	.	.
.	.	8g#/	.	.
2G# 2C#\	.	8e/	.	.
.	.	8g#/	.	.
.	.	8cc#/	.	.
.	.	8ee/J	.	.
=67	=67	=67	=67	=67
4D# 4GG#'/	.	8dd#\L	.	.
.	.	8b\	.	.
2D# 2GG#/	.	8dd#\	.	.
.	.	8gg#\	.	.
.	.	8bb\	.	.
.	.	8gg#\J	.	.
=68	=68	=68	=68	=68
4G# 4C#'\	.	8ee\L	.	.
.	.	8gg#\	.	.
2G# 2C#\	.	8ccc#\	.	.
.	.	8eee\	.	.
.	.	8ccc#'\J)	.	.
.	.	8r	.	.
=69	=69	=69	=69	=69
4D# 4GG#'/	.	4bb 4gg#'\	.	.
2D# 2GG#/	.	(4.bb 4.gg#\	.	.
.	.	8b\	.	.
!!linebreak:original
=70	=70	=70	=70	=70
4G# 4C#'\	.	4ee 4cc#'\)	.	.
2G# 2C#\	.	(4.ee 4.cc#\	.	.
.	.	8e/	.	.
=71	=71	=71	=71	=71
4D# 4GG#'/	.	4b 4g#'/)	.	.
2D# 2GG#/	.	(>4.b 4.g#/	.	.
.	.	8B/	.	.
=72	=72	=72	=72	=72
4G# 4C#'\	.	2.e 2.c#/)	.	.
2G# 2C#\	.	.	.	.
=73	=73	=73	=73	=73
4G# 4Cn'\	.	2.e/	.	.
2G# 2C\	.	.	.	.
=74	=74	=74	=74	=74
4G# 4BB'\	.	2.e/	.	.
2G# 2BB\	.	.	.	.
=75	=75	=75	=75	=75
4G# 4AA#X'\	.	[2.e/	.	.
2G# 2AA#\	.	.	.	.
=76	=76	=76	=76	=76
4c# 4G#\	.	4e/]	<	.
4r	.	(4e/	.	.
4r	.	4ee\)	[[	.
!!linebreak:original
=77	=77	=77	=77	=77
!LO:TX:b:i:t=Pédale toutes les 2 Mésures	!	!	!LO:DY:t=%s espressivo	!
4FF##X/	.	([2.dd#\	mf	.
4r	.	.	.	.
(4d# 4F##X\	.	.	.	.
=78	=78	=78	=78	=78
4e 4c#\)	.	4dd#\]	.	.
4r	.	8cc#\L	.	.
.	.	8b\	.	.
4r	.	8a#X\	.	.
.	.	8g#\J)	.	.
=79	=79	=79	=79	=79
4GG#/	.	([2.b\	.	.
4r	.	.	.	.
(4d# 4G#\	.	.	.	.
=80	=80	=80	=80	=80
4e 4c#\)	.	4b\]	.	.
4r	.	8a#X/L	.	.
.	.	8g#/	.	.
4r	.	8f#/	.	.
.	.	8e/J)	.	.
=81	=81	=81	=81	=81
4FF##X/	.	(>[2.d#/	.	.
4r	.	.	.	.
(4A#X 4F##X\	.	.	.	.
=82	=82	=82	=82	=82
4c# 4A#X\)	.	4d#/]	.	.
4r	.	8d#/L	.	.
.	.	8e/	.	.
4r	.	8d#/	.	.
.	.	8a#X/J)	.	.
!!linebreak:original
=83	=83	=83	=83	=83
4GG#/	.	([2.a#X/	.	.
4r	.	.	.	.
(4B 4G#\	.	.	.	.
=84	=84	=84	=84	=84
4d# 4B\)	.	4a#/]	.	.
4r	.	8b\L	.	.
.	.	8g#\	.	.
4r	.	8b\	.	.
.	.	8dd#\J)	.	.
=85	=85	=85	=85	=85
4GG#/	.	([2.ff#\	.	.
4r	.	.	.	.
(4g# 4B#X\	.	.	.	.
=86	=86	=86	=86	=86
4a 4f#\)	.	4ff#\]	.	.
4r	.	8ee\L	.	.
.	.	8dd#\	.	.
4r	.	8cc#\	.	.
.	.	8b#X\J)	.	.
=87	=87	=87	=87	=87
4C#/	.	([2.dd#\	.	.
4r	.	.	.	.
(4f# 4c#\	.	.	.	.
!!linebreak:original
=88	=88	=88	=88	=88
4g# 4e\)	.	4dd#\]	.	.
4r	.	8cc#\L	.	.
.	.	8b\	.	.
4r	.	8a\	.	.
.	.	8g#\J)	.	.
=89	=89	=89	=89	=89
4BB#X/	.	([2.g#/	.	.
4r	.	.	.	.
(4d# 4B#X\	.	.	.	.
=90	=90	=90	=90	=90
4f# 4d#\)	.	4g#/]	.	.
4r	.	8g#\L	.	.
.	.	8a\	.	.
4r	.	8g#\	.	.
.	.	8dd#\J)	.	.
=91	=91	=91	=91	=91
4C#/	.	([2.dd#\	<	.
4r	.	.	.	.
(4e 4c#\	.	.	.	.
=92	=92	=92	=92	=92
4g# 4e\)	.	4dd#\]	.	.
.	.	.	<	.
4r	.	8ee\L	.	.
.	.	8b#X\	.	.
4r	.	8cc#\	.	.
.	.	8ee\J)	[[	.
!!pagebreak:original
=93	=93	=93	=93	=93
*	*	*^	*	*
4C# 4CC#/	.	([2.gg#/	4r	.	.
4r	.	.	4r	.	.
(4c# 4E\	.	.	(>4cc# 4e\	.	.
=94	=94	=94	=94	=94	=94
4d# 4G#\)	.	4gg#/]	4dd# 4g#\)	.	.
4r	.	8ff#/L	4r	.	.
.	.	8ee/	.	.	.
4r	.	8dd#/	4r	.	.
.	.	8cc#/J)	.	.	.
=95	=95	=95	=95	=95	=95
4C# 4CC#/	.	([2.ee/	4r	.	.
4r	.	.	4r	.	.
(4c# 4E\	.	.	(>4cc# 4e\	.	.
=96	=96	=96	=96	=96	=96
4d# 4G#\)	.	4ee/]	4dd# 4g#\)	.	.
4r	.	8b#X/L	4r	.	.
.	.	8cc#/	.	.	.
4r	.	8dd#/	4r	.	.
.	.	8ee/J)	.	.	.
=97	=97	=97	=97	=97	=97
4AA#X 4AAA#X/	.	([2.gg#/	4r	.	.
4r	.	.	4r	.	.
(4c# 4E\	.	.	(>4cc# 4e\	.	.
=98	=98	=98	=98	=98	=98
4d# 4G#\)	.	4gg#/]	4dd# 4g#\)	.	.
4r	.	8ff#/L	4r	.	.
.	.	8ee/	.	.	.
4r	.	8dd#/	4r	.	.
.	.	8cc#/J)	.	.	.
!!linebreak:original
=99	=99	=99	=99	=99	=99
4AA#X 4AAA#X/	.	([2.ee/	4r	.	.
4r	.	.	4r	.	.
(4c# 4E\	.	.	(>4cc# 4e\	.	.
=100	=100	=100	=100	=100	=100
4d# 4G#\)	.	4ee/]	4dd# 4g#\)	.	.
4r	.	8b#X/L	4r	<	.
.	.	8cc#/	.	.	.
4r	.	8dd#/	4r	.	.
.	.	8ee/J)	.	[[	.
=101	=101	=101	=101	=101	=101
4BB 4BBB/	.	([2.ccc#/	4r	.	.
4r	.	.	4r	.	.
(4f# 4A\	.	.	(>4ff# 4a\	.	.
=102	=102	=102	=102	=102	=102
4g# 4c#\)	.	4ccc#/]	4gg# 4cc#\)	.	.
4r	.	8bb/L	4r	.	.
.	.	8aa/	.	.	.
4r	.	8gg#/	4r	.	.
.	.	8ff#/J)	.	.	.
=103	=103	=103	=103	=103	=103
4BB 4BBB/	.	([2.aa/	4r	.	.
4r	.	.	4r	.	.
(4d# 4F#\	.	.	(>4dd# 4f#\	.	.
=104	=104	=104	=104	=104	=104
4e 4A\)	.	4aa/]	4ee 4a\)	.	.
!	!	!	!	!LO:HP:t=dim.	!
4r	.	8gg#/L	4r	>	.
.	.	8ff#/	.	.	.
4r	.	8ee/	4r	.	.
.	.	8dd#/J)	.	.	.
!!linebreak:original
=105	=105	=105	=105	=105	=105
4BB/	.	([2.ff#/	4r	.	.
4r	.	.	4r	.	.
(4c# 4E\	.	.	(>4cc# 4e\	.	.
=106	=106	=106	=106	=106	=106
4d#X 4Gn\)	.	4ff#/]	4dd#X 4gn\)	.	.
!	!	!	!LO:TX:t=P:problem=długość widełek	!	!
4r	.	8ee/L	4r	>	.
.	.	8dd#/	.	.	.
4r	.	8cc#/	4r	.	.
.	.	8b#X/J)	.	.	.
*	*	*v	*v	*	*
=107	=107	=107	=107	=107
4BB/	.	(8dd#\L	]p	.
.	.	8cc#\	.	.
4r	.	8bn\	.	.
.	.	8an\	.	.
(4d# 4A\	.	8b\	.	.
.	.	8cc#\J	.	.
=108	=108	=108	=108	=108
4a 4B\)	.	8dd#\L	.	.
.	.	8ee\	.	.
4r	.	8ff#\	.	.
.	.	8gg#\J	.	.
4r	.	8aa'\)	.	.
.	.	8r	.	.
=109	=109	=109	=109	=109
4BB 4EE'/	.	4bb 4gg#'\	.	.
2BB 2EE/	.	(4.bb 4.gg#\	.	.
.	.	8b\	.	.
=110	=110	=110	=110	=110
4A 4BB'\	.	4ee 4cc#'\)	.	.
2A 2BB\	.	(4.ee 4.cc#\	.	.
.	.	8a/	.	.
!!linebreak:original
=111	=111	=111	=111	=111
4BB 4EE'/	.	4b 4g#'/)	.	.
2BB 2EE/	.	(>4.b 4.g#/	.	.
.	.	8B/	.	.
=112	=112	=112	=112	=112
4A 4BB'\	.	2.e 2.c#/)	.	.
2A 2BB\	.	.	.	.
=113	=113	=113	=113	=113
4BB 4EE'/	.	4r	.	.
2BB 2EE/	.	(8c#/L	.	.
.	.	8e/	.	.
.	.	8f#/	.	.
.	.	8a/J	.	.
=114	=114	=114	=114	=114
4A 4BB'\	.	8f#/L	.	.
.	.	8e/	.	.
2A 2BB\	.	8f#/	.	.
.	.	8a/	.	.
.	.	8cc#/	.	.
.	.	8ee/J	.	.
=115	=115	=115	=115	=115
4BB 4EE'/	.	8cc#\L	.	.
.	.	8a\	<	.
2BB 2EE/	.	8cc#\	.	.
.	.	8ee\	.	.
.	.	8ff#\	.	.
.	.	8aa\J	.	.
=116	=116	=116	=116	=116
4A 4BB'\	.	8ff#\L	.	.
.	.	8ee\	.	.
2A 2BB\	.	8ff#\	.	.
.	.	8aa\	.	.
.	.	8ccc#'\J)	[	.
.	.	8r	.	.
!!linebreak:original
=117	=117	=117	=117	=117
4E 4AA'/	.	4eee 4ccc#'\	.	.
2E 2AA/	.	(4.eee 4.ccc#\	.	.
.	.	8aa\	.	.
=118	=118	=118	=118	=118
4e 4E'\	.	4bb 4gg#'\)	.	.
2e 2E\	.	(4.bb 4.gg#\	.	.
.	.	8ee\	.	.
=119	=119	=119	=119	=119
4E 4AA'/	.	4aa 4ff#'\)	.	.
2E 2AA/	.	(4.aa 4.ff#\	.	.
.	.	8ddn\	.	.
=120	=120	=120	=120	=120
4e 4E'\	.	2.ee 2.cc#\)	.	.
2e 2E\	.	.	.	.
=121	=121	=121	=121	=121
4E 4AA'/	.	4r	.	.
2E 2AA/	.	(8dd#X\L	<	.
.	.	8ee\	.	.
.	.	8ff#\	.	.
.	.	8ee\J	.	.
=122	=122	=122	=122	=122
4e 4E'\	.	8dd#\L	.	.
.	.	8cc#\	.	.
2e 2E\	.	8b\	.	.
.	.	8a\	.	.
.	.	8b\	.	.
.	.	8cc#\J	.	.
!!pagebreak:original
=123	=123	=123	=123	=123
4E 4AA'/	.	8dd#\L	.	.
.	.	8ee\	.	.
2E 2AA/	.	8ff#\	.	.
.	.	8gg#\	.	.
.	.	8aa\	.	.
.	.	8bb\J	.	.
=124	=124	=124	=124	=124
4e 4E'\	.	8ccc#\L	.	.
.	.	8ddd#\	.	.
2e 2E\	.	8eee\	.	.
.	.	8fff#\	.	.
.	.	8eee\	.	.
.	.	8ddd#\J)	.	.
=125	=125	=125	=125	=125
*ped	*	*	*	*
4G# 4AA#X\	.	(8eee\L	f	.
.	.	8fff#\	.	.
2G# 2AA#\	.	8eee\	.	.
.	.	8ddd#\	.	.
.	.	8eee\	.	.
.	.	8fff#\J	.	.
=126	=126	=126	=126	=126
4e 4G#\	.	8eee\L	.	.
.	.	8ddd#\	.	.
2e 2G#\	.	8eee\	.	.
.	.	8fff#\	.	.
.	.	8eee\	.	.
.	.	8ddd#\J	.	.
*clefG2	*	*	*	*
=127	=127	=127	=127	=127
4g# 4e/	.	8eee\L	.	.
.	.	8fff#\	.	.
2g# 2e/	.	8eee\	.	.
.	.	8ddd#\	.	.
.	.	8eee\	.	.
.	.	8fff#\J	.	.
!!linebreak:original
=128	=128	=128	=128	=128
4cc# 4g#/	.	8eee\L	.	.
.	.	8ddd#\	.	.
2cc# 2g#/	.	8eee\	.	.
.	.	8fff#\	.	.
.	.	8eee\	.	.
.	.	8ddd#\J)	.	.
*Xped	*	*	*	*
=129	=129	=129	=129	=129
*ped	*	*	*	*
!	!	!	!LO:HP:t=dim.	!
4g# 4B/	.	(8eee\L	>	.
.	.	8fff#\	.	.
2g# 2B/	.	8eee\	.	.
.	.	8ddd#\	.	.
.	.	8eee\	.	.
.	.	8fff#\J	.	.
=130	=130	=130	=130	=130
4cc# 4g#/	.	8eee\L	.	.
.	.	8ddd#\	.	.
2cc# 2g#/	.	8eee\	.	.
.	.	8fff#\	.	.
.	.	8eee\	.	.
.	.	8ddd#\J)	.	.
*Xped	*	*	*	*
=131	=131	=131	=131	=131
*ped	*	*	*	*
4a 4B/	.	(8eee\L	.	.
.	.	8fff#\	.	.
2a 2B/	.	8eee\	.	.
.	.	8ddd#\	.	.
.	.	8eee\	.	.
.	.	8fff#\J	.	.
=132	=132	=132	=132	=132
4cc# 4a\	.	8eee\L	.	.
.	.	8ddd#\	.	.
2cc# 2a\	.	8eee\	.	.
.	.	8fff#\J	.	.
.	.	4eee\)	.	.
*Xped	*	*	*	*
!!linebreak:original
=133	=133	=133	=133	=133
(8e/L	.	4r	pp	.
8b/	.	.	.	.
*	*	*8va	*	*
8cc#/	.	(8ddd#\L	.	.
8b/	.	8fff#\	.	.
8B/	.	8aaa\	.	.
8b/J	.	8cccc#\J	.	.
=134	=134	=134	=134	=134
8e/L	.	8bbb\L	.	.
8b/	.	8ggg#\	.	.
8cc#/	.	8bbb\	.	.
8b/	.	8eeee\	.	.
8B/	.	8bbb\	.	.
8b/J	.	8ggg#\J	.	.
=135	=135	=135	=135	=135
8e/L	.	8aaa\L	.	.
8b/	.	8fff#\	.	.
8cc#/	.	8ddd#\	.	.
8b/	.	8fff#\	.	.
8B/	.	8ddd#\	.	.
8b/J	.	8fff#\J	.	.
=136	=136	=136	=136	=136
8e/L	.	2eee\)	.	.
*	*	*X8va	*	*
8b/	.	.	.	.
8cc#/	.	.	.	.
8b/J	.	.	.	.
4B/)	.	4r	.	.
*clefF4	*	*	*	*
=137	=137	=137	=137	=137
(8E\L	.	4r	.	.
8B\	.	.	.	.
8c#\	.	(8dd#\L	.	.
8B\	.	8ff#\	.	.
8BB\	.	8aa\	.	.
8B\J	.	8ccc#\J	.	.
!!linebreak:original
=138	=138	=138	=138	=138
8E\L	.	8bb\L	.	.
8B\	.	8gg#\	.	.
8c#\	.	8bb\	.	.
8B\	.	8eee\	.	.
8BB\	.	8bb\	.	.
8B\J	.	8gg#\J	.	.
=139	=139	=139	=139	=139
8E\L	.	8aa\L	.	.
8B\	.	8ff#\	.	.
8c#\	.	8dd#\	.	.
8B\	.	8ff#\	.	.
8BB\	.	8dd#\	.	.
8B\J	.	8ff#\J	.	.
=140	=140	=140	=140	=140
8E\L	.	[2.ee\)	.	.
8B\	.	.	.	.
8c#\	.	.	.	.
8B\	.	.	.	.
8BB\	.	.	.	.
8B\J	.	.	.	.
=141	=141	=141	=141	=141
8E\L	.	2.ee\]	.	.
8B\	.	.	.	.
8c#\	.	.	.	.
8B\	.	.	.	.
8BB\	.	.	.	.
8B\J)	.	.	.	.
=142	=142	=142	=142	=142
(8E#X\L	.	[2.dd#X\	.	.
8B\	.	.	.	.
8c#\	.	.	.	.
8B\	.	.	.	.
8BB\	.	.	.	.
8B\J	.	.	.	.
!!linebreak:original
=143	=143	=143	=143	=143
8E#X\L	.	2.dd#\]	.	.
8B\	.	.	.	.
8c#\	.	.	.	.
8B\	.	.	.	.
8BB\	.	.	.	.
8B\J)	.	.	.	.
=144	=144	=144	=144	=144
(8E#X\L	.	[2.ddn\	.	.
8B\	.	.	.	.
8c#\	.	.	.	.
8B\	.	.	.	.
8BB\	.	.	.	.
8B\J	.	.	.	.
=145	=145	=145	=145	=145
8E#X\L	.	2.dd\_	.	.
8B\	.	.	.	.
8c#\	.	.	.	.
8B\	.	.	.	.
8BB\	.	.	.	.
8B\J	.	.	.	.
=146	=146	=146	=146	=146
!	!	!LO:TX:b:i:t=rit.	!	!
8E#X\L	.	2.dd\_	.	.
8B\	.	.	.	.
8c#\	.	.	.	.
8B\	.	.	.	.
8BB\	.	.	.	.
8B\J	.	.	.	.
=147	=147	=147	=147	=147
8E#X\L	.	2.dd\]	.	.
8B\	.	.	.	.
8c#\	.	.	.	.
8B\	.	.	.	.
8BB\	.	.	.	.
8B\J)	.	.	.	.
!!pagebreak:original
=148||	=148||	=148||	=148||	=148||
*k[f#c#g#d#a#]	*	*k[f#c#g#d#a#]	*	*
!	!	!LO:TX:a:i:t=a Tempo	!	!
4r	.	4ff#'\	.	.
4d# 4B 4F#'\	.	4r	.	.
4d# 4B 4F#'\	.	4f#'/	.	.
=149	=149	=149	=149	=149
4r	.	(2f#/	.	.
4e 4A# 4F#'\	.	.	.	.
4e 4A# 4F#'\	.	[4dd#\	.	.
=150	=150	=150	=150	=150
(4F#\	.	4dd#\]	.	.
4e 4A#\)	.	4cc#'\)	.	.
4e 4A#'\	.	8r	.	.
.	.	(8dd#\	.	.
=151	=151	=151	=151	=151
4r	.	2cc#\	.	.
4d# 4B'\	.	.	.	.
4d# 4B'\	.	4b\)	.	.
=152	=152	=152	=152	=152
4r	.	4dd#'\	.	.
4B 4G#'\	.	4r	.	.
4B 4G#'\	.	4d#'/	.	.
=153	=153	=153	=153	=153
4r	.	(2d#/	.	.
4c# 4F##X'\	.	.	.	.
4c# 4F##'\	.	[4b\	.	.
!!linebreak:original
=154	=154	=154	=154	=154
(4D#\	.	4b\]	.	.
4c# 4F##X'\)	.	4a#'/)	.	.
4c# 4F##'\	.	8r	.	.
.	.	(8b\	.	.
=155	=155	=155	=155	=155
4r	.	2a#/	.	.
4B 4G#'\	.	.	.	.
4B 4G#'\	.	4g#/)	.	.
=156	=156	=156	=156	=156
(4E\	.	(8f##X/L	.	.
.	.	8g#/	.	.
4c# 4G#\)	.	8a#/	.	.
.	.	8b/	.	.
4c# 4G#\	.	8dd#/	.	.
.	.	8cc#/J	.	.
=157	=157	=157	=157	=157
(4D#\	.	4b'/)	.	.
4B 4F#\)	.	8r	.	.
.	.	8f#X/	.	.
4B 4F#\	.	4f#/	.	.
=158	=158	=158	=158	=158
(4E\	.	(8f##X/L	<	.
.	.	8g#/	.	.
4c# 4G#\)	.	8a#/	.	.
.	.	8b/	.	.
4c# 4G#\	.	8dd#/	.	.
.	.	8cc#/J	.	.
=159	=159	=159	=159	=159
(4D#\	.	4b\	.	.
4B 4F#\)	.	8ff#'\)	[	.
.	.	8r	.	.
4B 4F#\	.	8r	.	.
.	.	8ff#\	.	.
!!linebreak:original
=160	=160	=160	=160	=160
4C#/	.	(4.ff#\	.	.
4B 4G#\	.	.	.	.
.	.	8ee#X\L	>	.
4B 4G#\	.	8bb\	.	.
.	.	8aa#\J	.	.
=161	=161	=161	=161	=161
2.B 2.G#\	.	8bb\L	.	.
.	.	8aa#\	.	.
.	.	8gg#\	.	.
.	.	8ff#\	.	.
.	.	8ee#X\	.	.
.	.	8dd#\J	.	.
=162	=162	=162	=162	=162
2.r	.	8cc#\L	.	.
.	.	8dd#\	.	.
.	.	8ee#X\	.	.
.	.	8dd#\	.	.
.	.	8cc#\	.	.
.	.	8b\J	]	.
=163	=163	=163	=163	=163
2.r	.	8a#\L	.	.
.	.	8b\	.	.
.	.	8cc#\	.	.
.	.	8b\	.	.
.	.	8a#\	.	.
.	.	8g#\J	.	.
=164	=164	=164	=164	=164
2.r	.	8a#\L	.	.
.	.	8b\	.	.
.	.	8cc#\	.	.
.	.	8b\	.	.
.	.	8a#\	.	.
.	.	8g#\J	.	.
!!linebreak:original
=165	=165	=165	=165	=165
2.f#\	.	8a#\L	>	.
.	.	8b\	.	.
.	.	8cc#\	.	.
.	.	8b\	.	.
.	.	8a#\	.	.
.	.	8g#\J	.	.
=166	=166	=166	=166	=166
[2.e#X\	.	8a#\L	.	.
.	.	8b\	.	.
.	.	8cc#\	.	.
.	.	8b\	.	.
.	.	8a#\	.	.
.	.	8g#\J	.	.
=167	=167	=167	=167	=167
2e#X\]	.	8a#/L	.	.
.	.	8b/	.	.
.	.	8cc#/	.	.
.	.	8b/	.	.
4d#\	.	8a#/	.	.
.	.	8g#/J)	]	.
=168	=168	=168	=168	=168
4r	.	(4.g#/	.	.
4en 4A# 4F#'\	.	.	.	.
.	.	8f#/)	.	.
4e 4A# 4F#'\	.	4f#'/	.	.
=169	=169	=169	=169	=169
4r	.	(4.dd#\	.	.
4F# 4BB'\	.	.	.	.
.	.	8b/L	.	.
4B 4F#'\	.	8d#/	.	.
.	.	8a#/J)	.	.
!!linebreak:original
=170	=170	=170	=170	=170
4r	.	(4.g#/	.	.
4A# 4F#'\	.	.	.	.
.	.	8f#/L	.	.
4A# 4F#'\	.	8c#/	.	.
.	.	8e/J)	.	.
=171	=171	=171	=171	=171
4r	.	4d#'/	.	.
4F# 4BB'\	.	4r	.	.
4B 4F#'\	.	4d#'/	.	.
=172	=172	=172	=172	=172
4r	.	(4.g#/	.	.
4e 4A# 4F#'\	.	.	.	.
.	.	8f#/)	.	.
4e 4A# 4F#'\	.	4f#'/	.	.
=173	=173	=173	=173	=173
4r	.	(4.dd#\	.	.
4F# 4BB'\	.	.	.	.
.	.	8b/L	.	.
4B 4F#'\	.	8d#/	.	.
.	.	8g#/J)	.	.
=174	=174	=174	=174	=174
4r	.	2f#/	.	.
4e 4A# 4F#'\	.	.	.	.
4e 4A# 4F#'\	.	(8f#/L	.	.
.	.	8cc#/J	.	.
=175	=175	=175	=175	=175
4r	.	2.b\)	.	.
4d# 4B'\	.	.	.	.
4d# 4B'\	.	.	.	.
!!pagebreak:original
*clefG2	*	*	*	*
=176	=176	=176	=176	=176
4r	.	(4.gg#\	.	.
4ee 4a# 4f#'\	.	.	.	.
.	.	8ff#\)	.	.
4ee 4a# 4f#'\	.	4ff#'\	.	.
=177	=177	=177	=177	=177
4r	.	(4.ddd#\	.	.
4f# 4B'/	.	.	.	.
.	.	8bb\L	.	.
4b 4f#'/	.	8dd#\	.	.
.	.	8aa#\J)	.	.
=178	=178	=178	=178	=178
4r	.	(4.gg#\	.	.
4a# 4f#'/	.	.	.	.
.	.	8ff#\L	.	.
4a# 4f#'/	.	8cc#\	.	.
.	.	8ee\J	.	.
=179	=179	=179	=179	=179
4r	.	4dd#\)	.	.
4f# 4B'/	.	4r	.	.
4b 4f#'/	.	4dd#\	.	.
=180	=180	=180	=180	=180
4r	.	(4.gg#\	.	.
4ee 4a# 4f#'\	.	.	.	.
.	.	8ff#\)	.	.
4ee 4a# 4f#'\	.	4ff#'\	.	.
=181	=181	=181	=181	=181
4r	.	(4.ddd#\	.	.
4f# 4B'/	.	.	.	.
.	.	8bb\L	.	.
4b 4f#'/	.	8dd#\	.	.
.	.	8gg#\J)	.	.
=182	=182	=182	=182	=182
*ped	*	*	*	*
!	!	!LO:TX:t=P:problem=dynamics with extension lines	!	!
4r	.	2ff#\	<	.
4ee 4a# 4f#'\	.	.	.	.
4ee 4a# 4f#'\	.	(8ff#\L	.	.
.	.	8ccc#\J)	.	.
!!linebreak:original
=183	=183	=183	=183	=183
4r	.	2ccc#\	.	.
4ee 4a# 4f#'\	.	.	.	.
4ee 4a# 4f#'\	.	(8ff#\L	.	.
.	.	8fff#\J)	.	.
=184	=184	=184	=184	=184
4r	.	2fff#\	.	.
4ee 4a# 4f#'\	.	.	.	.
4ee 4a# 4f#'\	.	(8ff#\L	.	.
.	.	8ccc#\J)	.	.
=185	=185	=185	=185	=185
4r	.	2ccc#\	.	.
4ee 4a# 4f#'\	.	.	.	.
4ee 4a# 4f#'\	.	(8ff#\L	.	.
*Xped	*	*	*	*
.	.	8fff#\J)	.	.
=186	=186	=186	=186	=186
4ee 4a# 4f#^\	.	4fff# 4ff#^\	f	.
(8cc#\L	.	(8ccc#\L	.	.
8dd#\J	.	8ddd#\J	.	.
4cc#'\)	.	4ccc#'\)	.	.
=187	=187	=187	=187	=187
(8g#/L	.	(8gg#\L	.	.
8a#/J	.	8aa#\J	.	.
4g#'/)	.	4gg#'\)	.	.
4d#'/	.	4dd#'\	.	.
=188	=188	=188	=188	=188
4f#'/	.	4ff#'\	.	.
(8c#/L	.	(8cc#\L	.	.
8d#/J	.	8dd#\J	.	.
4c#'/)	.	4cc#'\)	.	.
!!linebreak:original
*clefF4	*	*	*	*
=189	=189	=189	=189	=189
(8G#\L	.	(8g#/L	.	.
8A#\J	.	8a#/J	.	.
4G#'\)	.	4g#'/)	.	.
4D#'\	.	4d#'/	.	.
=190	=190	=190	=190	=190
4F#'\	.	4f#'/	.	.
(8C#/L	.	(8c#/L	.	.
8D#/J	.	8d#/J	.	.
4C#'/)	.	4c#'/)	.	.
=191	=191	=191	=191	=191
(<8GG#\L	.	(>8G#</L	.	.
8AA#\J	.	8A#</J	.	.
4GG#'\)	.	4G#<'/)	.	.
4DD#'\	.	4D#<'/	.	.
=192	=192	=192	=192	=192
4GG#'\	.	4G#<'/	.	.
4DD#'\	.	4D#<'/	.	.
4GG#'\	.	4G#<'/	.	.
=193	=193	=193	=193	=193
4DD#'\	.	4D#<'/	.	.
4GG#'\	.	4G#<'/	.	.
4FF#'\	.	4F#<'/	.	.
=194	=194	=194	=194	=194
*	*^	*	*	*
4BB 4BBB'\	.	.	4B<'/	.	.
!	!	!	!LO:TX:t=P:problem=mixed beam	!	!
(<4D#\	.	1	(8A#</L	.	2
.	.	.	8B</	.	1
4AA#\	.	2	8c#</	.	2
.	.	.	8d#\J	.	3
!!linebreak:original
=195	=195	=195	=195	=195	=195
*	*	*	*	*	*^
!	!	!	!LO:TX:t=P:problem=dynamics with extension lines	!LO:HP:t=dim.	!	!
4GG#/	.	3	8e/L	>	.	1
.	.	.	8d#/	.	.	2
4D#/	.	1	8e/	.	.	1
.	.	.	8f#/	.	.	2
4FF#/	.	4	8g#/	.	.	3
.	.	.	8a#/J	.	.	4
*	*	*	*	*	*v	*v
=196	=196	=196	=196	=196	=196
4EE/	.	5	8b\L	.	1
.	.	.	8a#\	.	2
4BB/	.	1	8b\	.	1
.	.	.	8cc#\	.	2
4DD#/	.	3	8dd#\	.	3
.	.	.	8ee\J	.	1
=197	=197	=197	=197	=197	=197
4CC#/	.	4	8ff#\L	.	2
.	.	.	8ee\	.	1
4BB/	.	1	8ff#\	.	2
.	.	.	8gg#\	.	3
4BBB/)	.	5	8aa#\	.	4
.	.	.	8bb\J	.	1
=198	=198	=198	=198	=198	=198
(4BBB/	.	5	8ccc#\L	.	2
.	.	.	8bb\	.	1
4BB/	.	1	8ccc#\	.	2
.	.	.	8ddd#\	.	3
4EE/	.	2	8eee\	.	1
.	.	.	8fff#\J)	.	2
=199	=199	=199	=199	=199	=199
*	*	*	*8va	*	*
4DD#/	.	3	(8ggg#\L	p	3
.	.	.	8aaa#\	.	4
4BB/	.	1	8bbb\	.	5
.	.	.	8fff#\	.	1
4CC#/)	.	4	8ggg#\	.	2
.	.	.	8aaa#\J	.	3
*	*v	*v	*	*	*
=200	=200	=200	=200	=200
(4BBB/	.	8bbb\L	>	4
.	.	8fff#\	.	1
4BB/	.	8ggg#\	.	2
.	.	8aaa#\	.	3
4EE/	.	8bbb\	.	4
.	.	8fff#\J	.	1
!!linebreak:original
=201	=201	=201	=201	=201
4DD#/	.	8ggg#\L	.	.
.	.	8aaa#\	.	.
4BB/	.	8bbb\	.	.
.	.	8fff#\	.	.
4CC#/	.	8ggg#\	.	.
.	.	8aaa#\J	]]	.
=202	=202	=202	=202	=202
4BBB/)	.	4bbb'\)	pp	.
*	*	*X8va	*	*
4r	.	4r	.	.
4r	.	4r	.	.
*clefG2	*	*	*	*
=203	=203	=203	=203	=203
4ee 4a# 4f#'\	.	4fff# 4ccc# 4aa# 4ff#'\	.	.
4r	.	4r	.	.
4r	.	4r	.	.
=204	=204	=204	=204	=204
4f# 4B'/	.	4bb 4dd# 4b'\	.	.
4r	.	4r	.	.
4r	.	4r	.	.
*clefF4	*	*	*	*
=205	=205	=205	=205	=205
4e 4A# 4F#'\	.	4ff# 4cc# 4a# 4f#'\	.	.
4r	.	4r	.	.
4r	.	4r	.	.
=206	=206	=206	=206	=206
*ped	*	*	*	*
4F# 4BB'\	.	4b 4d# 4B'/	.	.
4r	.	4r	.	.
4r	.	4r	.	.
=207	=207	=207	=207	=207
!	!	!LO:TX:b:t=1	!	!
2.r	.	2.r	.	.
=208	=208	=208	=208	=208
4FF# 4BBB'\	.	4B< 4D#< 4BB<'/	.	.
4r	.	4r	.	.
4r	.	4r	.	.
=209	=209	=209	=209	=209
!	!	!LO:TX:b:t=1	!	!
2.r	.	2.r	.	.
=210	=210	=210	=210	=210
2.f# 2.B;\	.	2.bb 2.dd# 2.b;\	.	.
*Xped	*	*	*	*
==	==	==	==	==
*-	*-	*-	*-	*-
!!!system-decoration: {(s1,s2)}
!!!ENC: Katarzyna Serwa
!!!END: 2022-02-15
!!!AIN: 2 piano
!!!ENC: Andrzej Gręziak
!!!END: 2022-02-08
!!!RDF**kern: > = above
!!!RDF**kern: < = below
